X:789
M:C
L:1/8
K:A
||g|a>e a/g/f/e/ a2 e<c|d>B d/c/B/A/ G<BB>g|a>e a/g/f/e/ a2 e<c|d>B d/c/B/A/
E<AA>d|
c>eG>e F>dE>c|d>B d/c/B/A/ G<BB>d|c>ed>f e<ag<b|a/g/f/e/ a>e c<AA|]

